app/assets/images/payment_icons/tamara.svg

<svg width="38" height="24" viewBox="0 0 38 24" fill="none" role="img" xmlns="http://www.w3.org/2000/svg" aria-labelledby="pi-tamara">
<title id="pi-tamara">Tamara</title>
<rect width="38" height="24" rx="2" fill="black"/>
<path fill-rule="evenodd" clip-rule="evenodd" d="M6.05182 14.0395C5.93676 14.0377 5.82194 14.0285 5.70805 14.0122C5.36428 13.9561 5.14496 13.788 5.05145 13.5111C5.0095 13.3954 4.9863 13.2738 4.9827 13.1509V11.0839L5.18552 11.075C5.61936 11.0538 6.07932 11.0223 6.51591 10.902L6.23745 9.95802L4.9827 10.1433V8.7536H3.50105V10.1433H2.5V11.0962H3.50105C3.50105 11.0962 3.50105 13.0614 3.5093 13.5631C3.51015 13.8695 3.59913 14.1693 3.76576 14.4271C3.96514 14.7285 4.2546 14.9172 4.67812 15.0211C5.13282 15.1322 5.59368 15.1271 6.08048 15.1216H6.08413H6.20101V14.045H6.14464L6.05182 14.0395ZM9.03987 10.0742C9.75766 9.92316 10.3276 10.0298 10.9169 10.2499C11.6188 10.5124 12.0258 11.0866 12.0252 11.8296V15.1107H10.6742V14.1721L10.3503 14.4216C10.3298 14.4376 10.2765 14.4832 10.2391 14.5153C10.2189 14.5326 10.2031 14.5461 10.1997 14.5488C9.74096 14.9332 9.15557 15.1357 8.55585 15.1175C8.31044 15.1218 8.06774 15.066 7.84915 14.9551C7.63056 14.8441 7.44281 14.6813 7.30247 14.4811C7.14296 14.2617 7.06733 13.9917 7.0632 13.6315C7.0522 12.6847 7.67992 12.3881 8.20795 12.3054C8.37989 12.2785 8.55368 12.265 8.72773 12.265C9.24535 12.2729 9.75746 12.372 10.2403 12.5576L10.2706 12.5692L10.3077 12.5836C10.3542 12.6009 10.4055 12.6009 10.4521 12.5836L10.6872 12.5337C10.6872 12.5337 10.668 11.9178 10.6391 11.7688C10.5683 11.4092 10.1386 11.1638 9.69028 11.1727C9.30389 11.1802 8.94362 11.5097 8.73736 11.8023C8.47678 11.6081 8.28221 11.4414 8.09451 11.2794C7.98038 11.1802 7.8635 11.0804 7.73355 10.9752C8.02919 10.416 8.47953 10.1918 9.03987 10.0742ZM9.19801 14.138C9.73979 14.138 10.2107 13.8475 10.4995 13.3334L10.6645 13.0381H8.18045L8.1722 13.2288C8.1557 13.6649 8.38602 13.9889 8.79098 14.0949C8.90188 14.1212 9.01528 14.1356 9.12925 14.138H9.19801ZM23.1529 10.0742C23.8701 9.92316 24.44 10.0298 25.0292 10.2499C25.7312 10.5124 26.1382 11.0866 26.1382 11.8296V15.1107H24.7872V14.1721L24.4634 14.4216C24.4393 14.4408 24.367 14.5028 24.3322 14.5328L24.3135 14.5488C23.8545 14.9333 23.2689 15.1358 22.6689 15.1175C22.4235 15.1218 22.1808 15.066 21.9622 14.9551C21.7436 14.8441 21.5559 14.6813 21.4155 14.4811C21.2567 14.2617 21.1804 13.9917 21.1763 13.6315C21.1653 12.6847 21.793 12.3881 22.321 12.3054C22.493 12.2785 22.6668 12.265 22.8408 12.265C23.3584 12.2729 23.8705 12.372 24.3534 12.5576L24.3843 12.5692C24.3967 12.5747 24.4098 12.5795 24.4215 12.5836C24.468 12.6009 24.5193 12.6009 24.5658 12.5836L24.8003 12.5337C24.8003 12.5337 24.781 11.9178 24.7522 11.7688C24.6813 11.4092 24.2523 11.1638 23.8034 11.1727C23.4176 11.1802 23.0567 11.5097 22.8504 11.8023C22.5903 11.6085 22.3967 11.442 22.2086 11.2803L22.2076 11.2794C22.0935 11.1802 21.9766 11.0804 21.8466 10.9752C22.1416 10.416 22.5919 10.1918 23.1529 10.0742ZM23.3111 14.138C23.8522 14.138 24.3238 13.8475 24.6119 13.3334L24.7776 13.0381H22.2942L22.286 13.2288C22.2688 13.6649 22.4991 13.989 22.9047 14.0949C23.0154 14.1212 23.1286 14.1356 23.2423 14.138H23.3111ZM34.2594 10.2499C33.6702 10.0298 33.1002 9.92316 32.3824 10.0742C31.8221 10.1918 31.3718 10.416 31.0761 10.9752C31.2061 11.0804 31.323 11.1802 31.4371 11.2794C31.6248 11.4414 31.8194 11.6081 32.0799 11.8023C32.2862 11.5097 32.6465 11.1802 33.0329 11.1727C33.4818 11.1638 33.9108 11.4092 33.9817 11.7688C34.0105 11.9178 34.0298 12.5337 34.0298 12.5337L33.7946 12.5836C33.7483 12.6007 33.6973 12.6007 33.651 12.5836C33.6393 12.5795 33.6262 12.5747 33.6138 12.5692L33.5829 12.5576C33.1 12.372 32.5879 12.2729 32.0703 12.265C31.8963 12.265 31.7225 12.2785 31.5505 12.3054C31.0225 12.3881 30.3948 12.6847 30.4058 13.6315C30.4099 13.9917 30.4855 14.2617 30.645 14.4811C30.7854 14.6813 30.9731 14.8441 31.1917 14.9551C31.4103 15.066 31.653 15.1218 31.8984 15.1175C32.4984 15.1358 33.084 14.9333 33.543 14.5488L33.5618 14.5327C33.5967 14.5027 33.6688 14.4408 33.6929 14.4216L34.0167 14.1721V15.1107H35.3677V11.8296C35.3684 11.0866 34.9614 10.5124 34.2594 10.2499ZM33.8421 13.3334C33.5533 13.8475 33.0824 14.138 32.5406 14.138H32.4718C32.3578 14.1356 32.2445 14.1212 32.1336 14.0949C31.7286 13.989 31.4983 13.6649 31.5148 13.2288L31.523 13.0381H34.0057L33.8421 13.3334ZM28.8843 11.0094C29.0905 10.6354 29.402 10.4454 29.8392 10.4256C29.9383 10.4208 30.0386 10.4215 30.148 10.4229V11.7018L30.1265 11.702C30.0211 11.703 29.6221 11.7067 29.4549 11.7305C29.176 11.7641 28.9176 11.8933 28.7242 12.0959C28.5308 12.2985 28.4145 12.5619 28.3954 12.8406C28.3885 12.9472 28.3909 13.0538 28.3932 13.1587C28.3943 13.2106 28.3954 13.2621 28.3954 13.3129V13.3956V14.7005V15.1209H27.0857V10.4919H28.392V11.1016V11.2602L28.7158 11.3347C28.7158 11.3347 28.8616 11.0504 28.8843 11.0094ZM18.1429 11.6369C17.7131 11.6765 17.3969 12.0456 17.3969 12.5132V15.1175H16.0273V12.5603C16.039 12.3471 15.9803 12.1359 15.8602 11.9588C15.6574 11.6847 15.2703 11.5658 14.8977 11.6615C14.7385 11.7006 14.5955 11.7879 14.4883 11.9114C14.3812 12.0348 14.3152 12.1882 14.2995 12.3505C14.2885 12.4364 14.283 12.5229 14.283 12.6095V15.1209H12.9217V10.4912H14.2885V11.5309L14.4852 11.1891C14.9238 10.4242 15.7764 10.2923 16.3415 10.4495C16.8668 10.5992 17.1961 11.0141 17.3116 11.587L17.5124 11.1878C17.9524 10.4229 18.8998 10.3053 19.465 10.4625C19.9868 10.6102 20.2962 10.9601 20.4049 11.5343C20.431 11.6828 20.4434 11.8334 20.442 11.9841V14.3977V15.1148H19.1357V14.6541V12.5802C19.1381 12.4948 19.1323 12.4094 19.1185 12.3252C19.0257 11.846 18.6613 11.5883 18.1429 11.6369Z" fill="white"/>
<rect x="0.5" y="0.5" width="37" height="23" rx="1.5" stroke="black" stroke-opacity="0.07"/>
</svg>

<svg xmlns="http://www.w3.org/2000/svg" width="38" height="24" fill="none" aria-labelledby="pi-tamara" viewBox="0 0 38 24"><title id="pi-tamara">Tamara</title><rect width="38" height="24" fill="#000" rx="2"/><path fill="#fff" fill-rule="evenodd" d="M6.052 14.04a2.728 2.728 0 0 1-.344-.028c-.344-.056-.563-.224-.657-.5a1.156 1.156 0 0 1-.068-.361v-2.067l.203-.009c.433-.021.893-.053 1.33-.173l-.279-.944-1.254.185v-1.39H3.5v1.39H2.5v.953h1.001s0 1.965.008 2.467c.001.306.09.606.257.864.2.302.489.49.912.594.455.111.916.106 1.402.1H6.201v-1.076h-.056l-.093-.005Zm2.988-3.966c.718-.15 1.288-.044 1.877.176.702.262 1.109.837 1.108 1.58v3.28h-1.35v-.938l-.325.25a4.885 4.885 0 0 0-.15.127 2.444 2.444 0 0 1-1.644.569 1.504 1.504 0 0 1-1.254-.637c-.159-.22-.235-.49-.239-.85-.01-.946.617-1.243 1.145-1.326.172-.027.346-.04.52-.04.517.008 1.03.107 1.512.293l.03.011.038.015a.207.207 0 0 0 .144 0l.235-.05s-.019-.616-.048-.765c-.07-.36-.5-.605-.949-.596-.386.007-.746.337-.953.63-.26-.195-.455-.362-.642-.524a13.24 13.24 0 0 0-.361-.304c.295-.559.746-.783 1.306-.9Zm.158 4.064c.542 0 1.013-.29 1.301-.805l.165-.295H8.18l-.008.19c-.016.437.214.76.619.867.11.026.224.04.338.043h.069Zm13.955-4.064c.717-.15 1.287-.044 1.876.176.702.262 1.11.837 1.11 1.58v3.28h-1.352v-.938l-.324.25-.13.11-.02.017a2.445 2.445 0 0 1-1.644.569 1.504 1.504 0 0 1-1.253-.637c-.16-.22-.236-.49-.24-.85-.01-.946.617-1.243 1.145-1.326.172-.027.346-.04.52-.04.517.008 1.03.107 1.512.293l.031.011.038.015a.207.207 0 0 0 .144 0l.234-.05s-.019-.616-.048-.765c-.07-.36-.5-.605-.949-.596-.385.007-.746.337-.953.63-.26-.195-.453-.361-.641-.523h-.001c-.114-.1-.231-.2-.361-.305.295-.559.745-.783 1.306-.9Zm.158 4.064c.541 0 1.013-.29 1.3-.805l.167-.295h-2.484l-.008.19c-.017.437.213.761.619.867.11.026.224.04.337.043h.07ZM34.26 10.25c-.589-.22-1.159-.327-1.877-.176-.56.118-1.01.342-1.306.901.13.105.247.205.361.304.188.162.382.33.643.523.206-.292.567-.622.953-.63.449-.008.878.237.949.597.029.149.048.765.048.765l-.235.05a.207.207 0 0 1-.144 0 .504.504 0 0 1-.037-.015l-.031-.011a4.404 4.404 0 0 0-1.513-.293c-.174 0-.348.013-.52.04-.527.083-1.155.38-1.144 1.327.004.36.08.63.239.85a1.493 1.493 0 0 0 1.253.636c.6.018 1.186-.185 1.645-.57l.019-.015.13-.111.325-.25v.939h1.35V11.83c.001-.743-.406-1.318-1.108-1.58Zm-.417 3.083c-.289.514-.76.805-1.301.805h-.07a1.612 1.612 0 0 1-.337-.043c-.405-.106-.636-.43-.62-.866l.009-.19h2.483l-.164.294Zm-4.958-2.324c.206-.374.518-.564.955-.583.1-.005.2-.005.309-.003v1.279h-.021c-.106.001-.505.005-.672.028a1.21 1.21 0 0 0-.73.366c-.194.203-.31.466-.33.745-.006.106-.004.213-.002.318l.002.154v1.807h-1.31v-4.628h1.307v.768l.324.075.168-.326Zm-10.741.628c-.43.04-.746.409-.746.876v2.604h-1.37V12.56a.976.976 0 0 0-.167-.601c-.203-.274-.59-.393-.962-.297a.792.792 0 0 0-.598.688 2.039 2.039 0 0 0-.017.26v2.51h-1.361v-4.629h1.367v1.04l.196-.342c.439-.765 1.291-.897 1.857-.74.525.15.854.565.97 1.138l.2-.4c.44-.764 1.388-.882 1.953-.724.522.147.831.497.94 1.071.026.149.038.3.037.45V15.115h-1.306V12.58a1.343 1.343 0 0 0-.017-.255c-.093-.479-.458-.737-.976-.688Z" clip-rule="evenodd"/><rect width="37" height="23" x=".5" y=".5" stroke="#000" stroke-opacity=".07" rx="1.5"/></svg>
